assets/cursors/block.svg

<svg height="13.5pt" viewBox="0 0 13.5 13.5" width="13.5pt" xmlns="http://www.w3.org/2000/svg"><path d="m16.84375 16.5v6.015625h-6.773438v-6.015625h-6.015624v-6.773438h6.015624v-6.015624h6.773438v6.015624h6.015625v6.773438zm0 0" fill="#ebebeb" fill-rule="evenodd" stroke="#000" stroke-linecap="square" stroke-miterlimit="1.414214" transform="scale(.5)"/></svg>

<?xml version="1.0" encoding="UTF-8"?>
<svg xmlns="http://www.w3.org/2000/svg" xmlns:xlink="http://www.w3.org/1999/xlink" width="13.5pt" height="13.5pt" viewBox="0 0 13.5 13.5" version="1.1">
<g id="surface1">
<path style="fill-rule:evenodd;fill:rgb(92.155457%,92.155457%,92.155457%);fill-opacity:1;stroke-width:1;stroke-linecap:square;stroke-linejoin:miter;stroke:rgb(0%,0%,0%);stroke-opacity:1;stroke-miterlimit:1.414214;" d="M 16.84375 16.5 C 16.84375 16.5 16.84375 22.515625 16.84375 22.515625 C 16.84375 22.515625 10.070312 22.515625 10.070312 22.515625 C 10.070312 22.515625 10.070312 16.5 10.070312 16.5 C 10.070312 16.5 4.054688 16.5 4.054688 16.5 C 4.054688 16.5 4.054688 9.726562 4.054688 9.726562 C 4.054688 9.726562 10.070312 9.726562 10.070312 9.726562 C 10.070312 9.726562 10.070312 3.710938 10.070312 3.710938 C 10.070312 3.710938 16.84375 3.710938 16.84375 3.710938 C 16.84375 3.710938 16.84375 9.726562 16.84375 9.726562 C 16.84375 9.726562 22.859375 9.726562 22.859375 9.726562 C 22.859375 9.726562 22.859375 16.5 22.859375 16.5 C 22.859375 16.5 16.84375 16.5 16.84375 16.5 Z M 16.84375 16.5 " transform="matrix(0.5,0,0,0.5,0,0)"/>
</g>
</svg>
